public/images/sec1.svg

<svg width="76" height="89" viewBox="0 0 76 89" fill="none" xmlns="http://www.w3.org/2000/svg">
<path d="M56.6444 45.218C56.6444 53.6826 48.3979 60.6101 38.319 60.6101C28.2402 60.6101 19.9939 53.6827 19.9937 45.218M56.6444 45.218L56.6442 32.391C52.4442 32.391 49.0075 29.5049 49.0071 25.9775C49.0067 29.5049 42.519 31.1083 38.319 31.1083C34.119 31.1083 27.6315 29.5049 27.6309 25.9775C27.6305 29.5049 24.1939 32.391 19.9939 32.391L19.9937 45.218M56.6444 45.218L59.6987 45.2181C63.0583 45.2181 65.8072 42.9093 65.8072 40.0874V37.522C65.8072 36.111 64.4328 34.9566 62.7529 34.9566M19.9937 45.218L16.9396 45.2181C13.5799 45.2181 10.8311 42.9093 10.8311 40.0874V37.522C10.8311 36.111 12.2053 34.9566 13.8851 34.9566M29.1564 58.5342L27.6853 63.1755M27.6853 63.1755L12.9179 69.589C6.94971 72.1811 2.22803 74.2072 2.22803 79.8506V87H51.9148M27.6853 63.1755C27.6853 68.1084 32.4459 72.1074 38.319 72.1074C44.1922 72.1074 48.9532 68.1084 48.9532 63.1755M48.9532 63.1755L47.482 58.5342M48.9532 63.1755L63.7205 69.589C69.6885 72.1809 74.4104 74.2076 74.4104 79.8506V87H54.969M62.7529 34.9566V30.219C62.7529 18.9217 51.7696 9.69618 38.319 9.69618C30.0112 9.69618 22.646 13.2166 18.2275 18.5702M62.7529 34.9566H56.6444M16.5996 20.8397C14.8662 23.6541 13.8851 26.8439 13.8851 30.219V34.9566M13.8851 34.9566H19.9939M26.7965 12.1342C26.1311 11.2499 25.7615 10.2744 25.7615 9.24894C25.7615 5.24539 31.3838 2 38.3192 2C45.2546 2 50.8769 5.24539 50.8769 9.24894C50.8769 10.2744 50.5072 11.2499 49.8419 12.1342M21.317 65.9412V78.4159H55.3213V65.9412M10.9795 87L15.2084 82.2639V68.5942M65.6589 87L61.43 82.2639V68.5942" stroke="#001489" stroke-width="2.5" stroke-miterlimit="22.9256"/>
</svg>

<svg xmlns="http://www.w3.org/2000/svg" width="76" height="89" fill="none"><path stroke="#001489" stroke-miterlimit="22.926" stroke-width="2.5" d="M56.644 45.218c0 8.465-8.246 15.392-18.325 15.392s-18.325-6.927-18.325-15.392m36.65 0V32.391c-4.2 0-7.636-2.886-7.637-6.413 0 3.527-6.488 5.13-10.688 5.13s-10.688-1.603-10.688-5.13c0 3.527-3.437 6.413-7.637 6.413v12.827m36.65 0H59.7c3.36 0 6.108-2.309 6.108-5.13v-2.566c0-1.411-1.374-2.565-3.054-2.565m-42.76 10.261H16.94c-3.36 0-6.109-2.309-6.109-5.13v-2.566c0-1.411 1.374-2.565 3.054-2.565m15.271 23.577-1.47 4.642m0 0-14.768 6.413c-5.968 2.592-10.69 4.618-10.69 10.262V87h49.687m-24.23-23.824c0 4.932 4.76 8.931 10.634 8.931 5.873 0 10.634-3.999 10.634-8.931m0 0-1.471-4.642m1.471 4.642 14.767 6.413c5.969 2.592 10.69 4.619 10.69 10.262V87H54.97m7.784-52.043v-4.738c0-11.297-10.983-20.523-24.434-20.523-8.308 0-15.673 3.52-20.092 8.874m44.526 16.387h-6.109M16.6 20.84c-1.734 2.814-2.715 6.004-2.715 9.379v4.738m0 0h6.109m6.803-22.823c-.666-.884-1.035-1.86-1.035-2.885C25.762 5.245 31.384 2 38.319 2s12.558 3.245 12.558 7.249c0 1.025-.37 2-1.035 2.885M21.317 65.941v12.475h34.004V65.94M10.98 87l4.228-4.736v-13.67M65.658 87l-4.228-4.736v-13.67"/></svg>
